X:23
T:Bastay Jiyan
O:Kurde
S:http://www.morad.org/sheets/basta.gif
N:http://www.institutkurde.org/diasp/arhome.htm
Z:anamnese@laposte.net
M:2/4
L:1/8
Q:1/4=125
K:F
z G/B/ AG | FG/B/ AG | FF/A/ GF | E/D/E/F/ FE :|
|: z D/E/ FG/F/ | FF/G/ E | z D/E/ FG/F/ | FF/G/ E :||: z A G2 | 
FF/G/ E | AA GG | FF/G/ E :|| z D/E/-E/F/G |
AB A2 | DE FG/F/ | FF/G/ E :|
